X:3
T:Gallant Hussar, The
M:6/8
Q:3/8=96
P:(AB).(AC)
C:A.(AB)2.(AC)2
%abc2id:chwalshaw@gmail.com:000000020
R:Jig
%abc2 #test list 4:006
K:G
P:A
D | G2B ABc | dBe c2A | GAB cAd | G3 F2D | G2B ABc | dBe c2A | GAB cAd | G3 G2 |]
P:B
|: B/c/ | dBd g2g | ecA c2B | ABc dBA | G3 F2D | G2B ABc | dBe c2A | GAB cAd | G3 G2 :| 
P:C
|: z |\
%[M:3/8] B2 c | [M:6/8] 
d2c B2d | g3 g3 | e2c A2B | [M:3/8] c2 c | 
[M:6/8] ABc dBA | G3 F2D | G2B ABc | dBe c2A | GAB cAd | G3 G2 :| 

